mscore/mscore/data/superscript.svg

<?xml version="1.0" standalone="no"?>
<!DOCTYPE svg PUBLIC "-//W3C//DTD SVG 20010904//EN"
"http://www.w3.org/TR/2001/REC-SVG-20010904/DTD/svg10.dtd"
[
 <!ATTLIST svg
  xmlns:xlink CDATA #FIXED "http://www.w3.org/1999/xlink">
]>
<!-- Created with Sodipodi ("http://www.sodipodi.com/") -->
<svg
   xml:space="preserve"
   width="128pt"
   height="128pt"
   viewBox="0 0 507.946 507.946"
   id="svg49"
   sodipodi:version="0.27"
   sodipodi:docname="/mnt/windows/Themes/Work/Blue-Sphere/up-2.0.svg"
   sodipodi:docbase="/mnt/windows/Themes/Work/Blue-Sphere/"
   xmlns="http://www.w3.org/2000/svg"
   xmlns:sodipodi="http://sodipodi.sourceforge.net/DTD/sodipodi-0.dtd"
   xmlns:xlink="http://www.w3.org/1999/xlink">
  <defs
     id="defs62">
    <radialGradient
       id="aigrd1"
       cx="218.9404"
       cy="219.7715"
       r="150.7063"
       fx="218.9404"
       fy="219.7715"
       gradientUnits="userSpaceOnUse"
       style="stroke:#000000;stroke-opacity:0.986014;stroke-width:0.981612;">
      <stop
         offset="0"
         style="stop-color:#73ffff;stroke:#000000;stroke-opacity:0.986014;stroke-width:0.981612;"
         id="stop53" />
      <stop
         offset="0.2809"
         style="stop-color:#2EA6B9;stroke:#000000;stroke-opacity:0.986014;stroke-width:0.981612;"
         id="stop54" />
      <stop
         offset="1"
         style="stop-color:#006b8b;stroke:#000000;stroke-opacity:0.986014;stroke-width:0.981612;"
         id="stop55" />
    </radialGradient>
  </defs>
  <sodipodi:namedview
     id="base" />
  <path
     style="font-size:12;stroke:none;stroke-width:0.979268;stroke-opacity:0.986014;fill:#a4c9ee;fill-opacity:0.7;"
     d="M134.757,263.776c0,66.739,54.298,121.04,121.039,121.04c66.739,0,121.039-54.301,121.039-121.04c0-66.741-54.3-121.039-121.039-121.039c-66.741,0-121.039,54.298-121.039,121.039z"
     id="path51"
     transform="matrix(1.89511,0,0,1.91236,-231.458,-247.971)" />
  <path
     style="font-size:12;fill:url(#aigrd1);fill-rule:evenodd;stroke:#1c6671;stroke-width:7.73106;stroke-opacity:0.988235;"
     d="M356.643,263.366c0,57.027-46.23,103.257-103.256,103.257c-57.027,0-103.256-46.229-103.256-103.257c0-57.027,46.229-103.256,103.256-103.256     c57.025,0,103.256,46.229,103.256,103.256z"
     id="path56"
     transform="matrix(2.04451,0,0,2.04451,-264.353,-281.723)" />
  <path
     style="font-size:12;opacity:1.0;fill:#ffffff;stroke:#1c6772;stroke-width:4.99274;stroke-opacity:0.988235;fill-opacity:0.7;"
     d="M305.753,281.376c0,0-18.858-18.856-27.854-27.851c7.943-7.944,21.152-21.153,21.152-21.153c1.913-1.913,2.929-4.471,2.929-7.073c0-1.289-0.249-2.588-0.762-3.825c-1.548-3.736-5.193-6.173-9.238-6.173     l-76.863,0c-5.523,0-10,4.477-10,10v76.867c0,4.045,2.437,7.691,6.173,9.239c3.737,1.548,8.039,0.691,10.898-2.169c0,0,13.208-13.211,21.152-21.155c8.996,8.996,27.852,27.854,27.852,27.854c1.875,1.876,4.419,2.93,7.071,2.93s5.195-1.054,7.071-2.929l20.42-20.42     c1.875-1.876,2.929-4.419,2.929-7.071s-1.054-5.196-2.93-7.071z"
     id="path59"
     transform="matrix(1.41062,1.39947,-1.39947,1.41062,269.133,-465.329)" />
</svg>

<?xml version="1.0" encoding="UTF-8" standalone="no"?>
<!-- Created with Inkscape (http://www.inkscape.org/) -->
<svg
   xmlns:svg="http://www.w3.org/2000/svg"
   xmlns="http://www.w3.org/2000/svg"
   version="1.0"
   width="128pt"
   height="128pt"
   viewBox="0 0 507.946 507.946"
   id="svg49"
   xml:space="preserve">
  <defs
   id="defs62">
    <radialGradient
   cx="218.9404"
   cy="219.7715"
   r="150.7063"
   fx="218.9404"
   fy="219.7715"
   id="aigrd1"
   gradientUnits="userSpaceOnUse">
      <stop
   style="stop-color:#73ffff;stop-opacity:1"
   offset="0"
   id="stop53" />
      <stop
   style="stop-color:#2ea6b9;stop-opacity:1"
   offset="0.2809"
   id="stop54" />
      <stop
   style="stop-color:#006b8b;stop-opacity:1"
   offset="1"
   id="stop55" />
    </radialGradient>
  </defs>
  
  <path
   d="M 134.757,263.776 C 134.757,330.515 189.055,384.816 255.796,384.816 C 322.535,384.816 376.835,330.515 376.835,263.776 C 376.835,197.035 322.535,142.737 255.796,142.737 C 189.055,142.737 134.757,197.035 134.757,263.776 z "
   transform="matrix(1.89511,0,0,1.91236,-231.458,-247.971)"
   style="font-size:12px;fill:#a4c9ee;fill-opacity:0.7;stroke:none;stroke-width:0.97926801;stroke-opacity:0.98601403"
   id="path51" />
  <path
   d="M 356.643,263.366 C 356.643,320.393 310.413,366.623 253.387,366.623 C 196.36,366.623 150.131,320.394 150.131,263.366 C 150.131,206.339 196.36,160.11 253.387,160.11 C 310.412,160.11 356.643,206.339 356.643,263.366 z "
   transform="matrix(2.04451,0,0,2.04451,-264.353,-281.723)"
   style="font-size:12px;fill:url(#aigrd1);fill-rule:evenodd;stroke:#1c6671;stroke-width:7.73106003;stroke-opacity:0.98823499"
   id="path56" />
  <path
   d="M 305.753,281.376 C 305.753,281.376 286.895,262.52 277.899,253.525 C 285.842,245.581 299.051,232.372 299.051,232.372 C 300.964,230.459 301.98,227.901 301.98,225.299 C 301.98,224.01 301.731,222.711 301.218,221.474 C 299.67,217.738 296.025,215.301 291.98,215.301 L 215.117,215.301 C 209.594,215.301 205.117,219.778 205.117,225.301 L 205.117,302.168 C 205.117,306.213 207.554,309.859 211.29,311.407 C 215.027,312.955 219.329,312.098 222.188,309.238 C 222.188,309.238 235.396,296.027 243.34,288.083 C 252.336,297.079 271.192,315.937 271.192,315.937 C 273.067,317.813 275.611,318.867 278.263,318.867 C 280.915,318.867 283.458,317.813 285.334,315.938 L 305.754,295.518 C 307.629,293.642 308.683,291.099 308.683,288.447 C 308.683,285.795 307.629,283.251 305.753,281.376 L 305.753,281.376 z "
   transform="matrix(1.41062,1.39947,-1.39947,1.41062,269.133,-465.329)"
   style="font-size:12px;opacity:1;fill:#ffffff;fill-opacity:0.7;stroke:#1c6772;stroke-width:4.99274015;stroke-opacity:0.98823499"
   id="path59" />
</svg>
